style-guide/assets/xd-icons-images-tiny.svg

<svg viewBox="0 0 12 12" xmlns="http://www.w3.org/2000/svg">
  <path d="M11 10a1 1 0 0 1-1-1V2H3a1 1 0 1 1 0-2h8a1 1 0 0 1 1 1v8a1 1 0 0 1-1 1zM3.414 5L7 8.586V5H3.414zM2 10h3.586L2 6.414V10zm6 2H1a1 1 0 0 1-1-1V3.997a.988.988 0 0 1 .293-.704A1.009 1.009 0 0 1 .997 3H8a1 1 0 0 1 1 1v7.003a.988.988 0 0 1-.293.704 1.009 1.009 0 0 1-.704.293H8z"/>
</svg>

<?xml version="1.0" encoding="UTF-8"?>
<svg width="12px" height="12px" viewBox="0 0 12 12" version="1.1" xmlns="http://www.w3.org/2000/svg" xmlns:xlink="http://www.w3.org/1999/xlink">
    <!-- Generator: Sketch 51.3 (57544) - http://www.bohemiancoding.com/sketch -->
    <title>images</title>
    <desc>Created with Sketch.</desc>
    <defs></defs>
    <g id="images" stroke="none" stroke-width="1" fill="none" fill-rule="evenodd">
        <path d="M11,10 C10.447,10 10,9.552 10,9 L10,2 L3,2 C2.447,2 2,1.552 2,1 C2,0.448 2.447,0 3,0 L11,0 C11.553,0 12,0.448 12,1 L12,9 C12,9.552 11.553,10 11,10 Z M3.414,5 L7,8.586 L7,5 L3.414,5 Z M2,10 L5.586,10 L2,6.414 L2,10 Z M8,12 L1,12 C0.447,12 0,11.552 0,11 L0,4 L0,3.997 C0,3.863 0.027,3.735 0.075,3.619 C0.124,3.5 0.196,3.389 0.293,3.293 C0.39,3.197 0.5,3.124 0.619,3.075 C0.735,3.027 0.863,3 0.997,3 L1,3 L8,3 C8.553,3 9,3.448 9,4 L9,11 L9,11.003 C9,11.137 8.973,11.265 8.925,11.381 C8.876,11.5 8.804,11.611 8.707,11.707 C8.61,11.803 8.5,11.876 8.381,11.925 C8.265,11.973 8.137,12 8.003,12 L8,12 Z" id="Fill-1" fill="#000000"></path>
    </g>
</svg>
